; Projekt Ritzel, rechte Seite: GD11_Ritzel_RECHTS.MPF
; Rohteildefinition
N1 WORKPIECE(,,,"CYLINDER",192,1,-39,-32,105)
N2 G96 G18 G54 G90 ; Grundeinstellungen
; TAV 10.10 Plan- und Längsschruppen
N3 T="DR_R0.8K95E80"  ; Werkzeug zum Plan- und zum Längsschruppen
;NCG#tc#dmg_eqiment_uc_turn_sl.com#TC#*NCG;*RO*;*HD*
;#" Werkzeugwechsel"#"tc_bc_pos_spindle1_2.png"#1#1#1#1#1#2##1##0#2#4#18#1280203#3#1#"#e5ecf0"#"#e5ecf0"#1#0#"C:/Siemens/SinuTrain/SINUMERIK CNC-SW 840D sl 4.8 SP4/hmi/oem/sinumerik/hmi/"#1#"gm_cycles_ui/lng/dm_gm_cycles_ui_lng"#"01010601"##1920#1080#5#0#273#60#129#21#60#212#5#399#558#279#280##1#1#1#3#5#9#10#"R3"##"36"##"106"#"30"#30#0#0###"1"#"0"#"1"#"0"##"0"#"0"#"0"##"0"#1#"1"#0#""#*NCG;*RO*;*HD*
N4 TC(1,0,0,2,90,0)  ;Werkzeugwechsel
;#END#*NCG;*RO*;*HD*
N5 B1=90 ; Radiale Werkzeuglage
N6 S327 LIMS=4000 M4 M8  ; Schnittbedingungen
N7 G0 X120 Z2            ; Rückzugsposition
; Planschnitt mit Drehzyklus
N8 CYCLE951(105,2,-1.5,0,-1.5,0,1,4,0,0,12,0,0,0,1,0.35,1,2,1110000)
N9 G0 X120               ; Rückzug
; Längsschnitte mit Z=-30
N10 CYCLE951(105,0,78,-30,78,-30,1,3,0,0,11,1,1.5,1,1,0.35,1,2,1010000)
N11 G0 X120 Z2              ; Rückzug 
; TAV 10.30 Zentralbohrung d29,5 (Aufmaß für Passung 0,25)
N12 T="BV_D29.5L90"       ; Vollbohrer d29.5
;NCG#tc#dmg_eqiment_uc_turn_sl.com#TC#*NCG;*RO*;*HD*
;#" Werkzeugwechsel"#"tc_bc_pos_spindle1_1.png"#1#1#1#1#1#1##1##0#2#4#18#1280203#3#1#"#e5ecf0"#"#e5ecf0"#1#0#"C:/Siemens/SinuTrain/SINUMERIK CNC-SW 840D sl 4.8 SP4/hmi/oem/sinumerik/hmi/"#1#"gm_cycles_ui/lng/dm_gm_cycles_ui_lng"#"01010601"##1920#1080#5#0#273#60#129#21#60#212#5#399#558#279#280##1#1#1#3#5#9#10#"R3"##"36"##"106"#"30"#30#0#0###"1"#"0"#"1"#"0"##"0"#"0"#"0"##"0"#1#"1"#0#""#*NCG;*RO*;*HD*
N13 TC(1,0,0,1,0,0)  ;Werkzeugwechsel
;#END#*NCG;*RO*;*HD*
N14 B1=0 ; Axiale Werkzeuglage
N15 S80 F0.25 LIMS=8000 M4 M8 ; Schnittbedingungen
N16 G0 X140 Z2         ; Rückzug
N17 G0 X0
; Bohren
N18 CYCLE86(50,0,1,-39,,0,4,2,3,1,0,1,1,12)
N19 G0 Z2             ; Rückzug
; TAV 10.40    Einstechdrehen der umlaufenden Nuten 
N20 T="DS_R0.4B4T23.3" ; Stechwerkzeug
;NCG#tc#dmg_eqiment_uc_turn_sl.com#TC#*NCG;*RO*;*HD*
;#" Werkzeugwechsel"#"tc_bc_pos_c1_2.png"#1#1#1#1#1#2##1##0#2#4#18#1280203#3#1#"#e5ecf0"#"#e5ecf0"#1#0#"C:/Siemens/SinuTrain/SINUMERIK CNC-SW 840D sl 4.8 SP4/hmi/oem/sinumerik/hmi/"#1#"gm_cycles_ui/lng/dm_gm_cycles_ui_lng"#"01010601"##1920#1080#5#0#273#60#129#21#60#212#5#399#558#279#280##1#1#1#3#5#9#10#"R3"##"36"##"106"#"30"#30#0#0###"1"#"0"#"1"#"0"##"0"#"0"#"0"##"0"#1#"1"#0#""#*NCG;*RO*;*HD*
N21 TC(1,0,0,2,90,0)  ;Werkzeugwechsel
;#END#*NCG;*RO*;*HD*
N22 B1=90
N23 S215 LIMS=4000 M4 M8  ; Schnittbedingungen
N24 G0 X120                   ; Rückzug
; Radialeinstiche
N25 CYCLE930(78,-16,4.952771,10,4.2,,0,31,31,0.8,0.8,0.8,0.8,0.2,2,1,10530,,2,13,0.12,1,0,0,2,10)
;TAV 10.50 Passung drehen d=30 H7
N26 T="DFi_R0.4"
;NCG#tc#dmg_eqiment_uc_turn_sl.com#TC#*NCG;*RO*;*HD*
;#" Werkzeugwechsel"#"tc_bc_pos_c1_2.png"#1#1#1#1#1#1##1##0#2#4#18#1280203#3#1#"#e5ecf0"#"#e5ecf0"#1#0#"C:/Siemens/SinuTrain/SINUMERIK CNC-SW 840D sl 4.8 SP4/hmi/oem/sinumerik/hmi/"#1#"gm_cycles_ui/lng/dm_gm_cycles_ui_lng"#"01010601"##1920#1080#5#0#273#60#129#21#60#212#5#399#558#279#280##1#1#1#3#5#9#10#"R3"##"36"##"106"#"30"#30#0#0###"1"#"0"#"1"#"0"##"0"#"0"#"0"##"0"#1#"1"#0#""#*NCG;*RO*;*HD*
N27 TC(1,0,0,2,0,0)  ;Werkzeugwechsel
;#END#*NCG;*RO*;*HD*
N28 B1=0
N29 S280 LIMS=4000 M4 M8 ; Schnittbedingungen
N30 G0 Z2            ; Rückzug
N31 CYCLE951(29.5,0,30.1,-31,30.1,-31,3,1,0,0,11,0,0,0,1,0.3,0,2,1110000)
N32 G0 X28 ; Abheben
; Grundeinstellungen
N33 G0 Z200 ; Rückzug
N34 X200
N35 M2


